src/assets/icons/java.svg

<svg fill="none" height="147" viewBox="0 0 237 147" width="237" xmlns="http://www.w3.org/2000/svg" xmlns:xlink="http://www.w3.org/1999/xlink"><mask id="a" height="147" maskUnits="userSpaceOnUse" width="237" x="0" y="0"><rect fill="#f5f5f5" height="146.389" rx="10" width="236.694" x=".144043"/></mask><g mask="url(#a)"><path d="m.144043 10c0-5.52285 4.477157-10 9.999957-10h216.694c5.523 0 10 4.47715 10 10v126.389c0 5.523-4.477 10-10 10h-216.694c-5.5228 0-9.999957-4.477-9.999957-10z" fill="#f5f5f5"/><g fill="#000"><path d="m111.362 93.1567h-38.0234l19.0115-19.0116zm-.951-39.9243-38.9736 39.1353v-18.3842l20.7511-20.7511zm-20.9126 0-18.061 18.061v-18.061z"/><path d="m147.541 49.4299c2.509 5.8069-8.997 9.3929-10.067 14.2302-.98 4.4451 6.837 9.6103 6.844 9.6103-1.187-1.8393-2.06-3.3543-3.251-6.2167-2.014-4.8409 12.266-9.2218 6.474-17.6238zm7.642 8.0419s-10.095.6488-10.608 7.1008c-.228 2.8732 2.656 4.3846 2.738 6.4735.067 1.7075-1.711 3.1369-1.711 3.1369s3.236-.6167 4.249-3.2225c1.123-2.8909-2.189-4.8444-1.854-7.1578.321-2.2137 7.186-6.3309 7.186-6.3309zm-15.855 14.9146s-9.24-.1319-9.24 2.481c0 2.7305 12.095 2.9337 20.732 1.2548 0 0 2.296-1.5792 2.909-2.1673-5.661 1.1549-18.565 1.2832-18.565.2851 0-.9197 4.164-1.8536 4.164-1.8536zm17.766 0c-.905.0713-1.882.4206-2.766 1.0551 2.082-.4491 3.85.8413 3.85 2.3099 0 3.3081-4.791 6.4165-4.791 6.4165s7.414-.8413 7.414-6.2739c0-2.4667-1.714-3.6644-3.707-3.5076zm-19.991 5.0761c-1.418 0-3.536 1.1122-3.536 2.1673 0 2.121 10.666 3.7536 18.565.6559l-2.738-1.6825c-5.354 1.7146-15.214 1.1549-12.291-1.1407zm1.312 4.7624c-1.943 0-3.222 1.1728-3.222 2.0532 0 2.7234 11.603 2.9979 16.198.2282l-2.909-1.8537c-3.433 1.4509-12.049 1.6719-10.067-.4277zm-6.473 2.4525c-3.166-.0642-5.219 1.3581-5.219 2.538 0 6.2738 32.396 5.9851 32.396-.4277 0-1.0659-1.23-1.5828-1.683-1.8251 2.649 6.1312-26.521 5.6428-26.521 2.0247 0-.8235 2.146-1.6112 4.135-1.2263l-1.682-.9696c-.496-.0748-.974-.1033-1.426-.114zm30.599 4.2205c-4.926 4.6698-17.41 6.363-29.972 3.4792 12.558 5.1402 29.911 2.2564 29.972-3.4792z"/></g></g></svg>

<svg width="237" height="147" viewBox="0 0 237 147" fill="none" xmlns="http://www.w3.org/2000/svg">
<mask id="mask0_98_140" style="mask-type:alpha" maskUnits="userSpaceOnUse" x="0" y="0" width="237" height="147">
<rect x="0.144043" width="236.694" height="146.389" rx="10" fill="#F5F5F5"/>
</mask>
<g mask="url(#mask0_98_140)">
<path d="M0.144043 10C0.144043 4.47715 4.6212 0 10.144 0H226.838C232.361 0 236.838 4.47715 236.838 10V136.389C236.838 141.912 232.361 146.389 226.838 146.389H10.144C4.6212 146.389 0.144043 141.912 0.144043 136.389V10Z" fill="#F5F5F5"/>
<path d="M111.362 93.1567H73.3386L92.3501 74.1451L111.362 93.1567ZM110.411 53.2324L71.4374 92.3677V73.9835L92.1885 53.2324H110.411ZM89.4984 53.2324L71.4374 71.2934V53.2324H89.4984Z" fill="black"/>
<path d="M147.541 49.4299C150.05 55.2368 138.544 58.8228 137.474 63.6601C136.494 68.1052 144.311 73.2704 144.318 73.2704C143.131 71.4311 142.258 69.9161 141.067 67.0537C139.053 62.2128 153.333 57.8319 147.541 49.4299ZM155.183 57.4718C155.183 57.4718 145.088 58.1206 144.575 64.5726C144.347 67.4458 147.231 68.9572 147.313 71.0461C147.38 72.7536 145.602 74.183 145.602 74.183C145.602 74.183 148.838 73.5663 149.851 70.9605C150.974 68.0696 147.662 66.1161 147.997 63.8027C148.318 61.589 155.183 57.4718 155.183 57.4718ZM139.328 72.3864C139.328 72.3864 130.088 72.2545 130.088 74.8674C130.088 77.5979 142.183 77.8011 150.82 76.1222C150.82 76.1222 153.116 74.543 153.729 73.9549C148.068 75.1098 135.164 75.2381 135.164 74.24C135.164 73.3203 139.328 72.3864 139.328 72.3864ZM157.094 72.3864C156.189 72.4577 155.212 72.807 154.328 73.4415C156.41 72.9924 158.178 74.2828 158.178 75.7514C158.178 79.0595 153.387 82.1679 153.387 82.1679C153.387 82.1679 160.801 81.3266 160.801 75.894C160.801 73.4273 159.087 72.2296 157.094 72.3864ZM137.103 77.4625C135.685 77.4625 133.567 78.5747 133.567 79.6298C133.567 81.7508 144.233 83.3834 152.132 80.2857L149.394 78.6032C144.04 80.3178 134.18 79.7581 137.103 77.4625ZM138.415 82.2249C136.472 82.2249 135.193 83.3977 135.193 84.2781C135.193 87.0015 146.796 87.276 151.391 84.5063L148.482 82.6526C145.049 84.1035 136.433 84.3245 138.415 82.2249ZM131.942 84.6774C128.776 84.6132 126.723 86.0355 126.723 87.2154C126.723 93.4892 159.119 93.2005 159.119 86.7877C159.119 85.7218 157.889 85.2049 157.436 84.9626C160.085 91.0938 130.915 90.6054 130.915 86.9873C130.915 86.1638 133.061 85.3761 135.05 85.761L133.368 84.7914C132.872 84.7166 132.394 84.6881 131.942 84.6774ZM162.541 88.8979C157.615 93.5677 145.131 95.2609 132.569 92.3771C145.127 97.5173 162.48 94.6335 162.541 88.8979Z" fill="black"/>
</g>
</svg>
